app/dist/common/images/hp.svg

<svg height="18" viewBox="0 0 18 18" width="18" xmlns="http://www.w3.org/2000/svg"><path d="m0 0h18v18h-18z" fill="#0096d6"/><path d="m9 14.14h-.15l1.14-3.14h1.44a.7.7 0 0 0 .62-.45l.92-2.62c.2-.52-.1-.93-.65-.93h-2l-2.52 7a5.14 5.14 0 0 1 -.2-9.95l-2.59 6.95h1.09l1.13-3h.82l-1.13 3h1.08l1.15-3.07c.19-.53-.1-.93-.65-.93h-.9l1.18-3.14h.22a5.14 5.14 0 0 1 0 10.28zm2.87-6.14h-.82l-.75 2h.82z" fill="#fff"/></svg>

<!-- by TradingView --><svg width="18" height="18" viewBox="0 0 18 18" xmlns="http://www.w3.org/2000/svg"><path fill="#0096D6" d="M0 0h18v18H0z"/><path d="M9 14.14h-.15L9.99 11h1.44a.7.7 0 0 0 .62-.45l.92-2.62c.2-.52-.1-.93-.65-.93h-2L7.8 14a5.14 5.14 0 0 1-.2-9.95L5.01 11H6.1l1.13-3h.82l-1.13 3H8l1.15-3.07C9.34 7.4 9.05 7 8.5 7h-.9l1.18-3.14H9a5.14 5.14 0 0 1 0 10.28zM11.87 8h-.82l-.75 2h.82l.75-2z" fill="#fff"/></svg>
